!!!COM: d'Indy
!!!CNT: Francais
!!!TXO: Francais
!!!OTL: Lied maritime
!!!LYR: Anonymous
!!!OPR:
!!!OPS: Op. 43
!!!ONM:
!!!ENC: Ben Fuhrman
!!!YOR: Paris, E. Baudoux, 1896
!!!YOR: IMSLP, http://imslp.org/wiki/Lied_maritime,_Op.43_%28Indy,_Vincent_d%27%29
!!!ODT: 1896
!!NB: Only vocal melody encoded.
!!NB: First instance of melodic material only encoded.
!!created: 2/24/10 4:28PM
!!proofed and posted: 2/24/10 4:29PM
**kern	**silbe
*clef G2	*
*k[f#]	*
*M6/4	*
!! Interpreted as 3/4 x2
*MM[Lento moderato]	*
=1	=1
2.r	.
4r	.
4r	.
{4d	{Au
=2	=2
2g	loin,
8a	dans
8a	la
2cc	mer,
4b	s'e/-
=3	=3
4b	-teint
8g	le
8g	so-
[4a	-leil,
4a]}	|}
4r	.
{8d	{et
8d	la
=4	=4
2g	mer
4a	est
2cc	calme
8b	et
8g	sans
=5	=5
2a	ri-
4g}	-de;}
4r	.
4r	.
{4d	{le
=6	=6
2e	flot
8f#	di-
8f#	-a-
2a	-pre/
4g	s'e/-
=7	=7
4g	-ta-
8e	-le
8e	sans
[4f#	bruit,
4f#]}	|}
4r	.
{8e	{ca-
8f#	-res-
=8	=8
4.g	-sant
8e	la
[4b	gre^ve
4b]	|
4a	as-
4g	-som-
=9	=9
2f#	-bri-
4B}	-e;}
4r	.
4r	.
{4b	{Tes
=10	=10
2.ee	yeux,
4b	tes
4.cc	trai^-
8dd	-tres
=11	=11
4dd	yeux
4a	sont
[4cc	clos,
4cc]}	|}
4r	.
{8fn	{et
8fn	mon
=12	=12
4a	coeur
4b	est
4cc	tran-
2cc	-quil-
4g	-le
=13	=13
2.b	com-
2a	-me
4a	la
=14	=14
2.g}	mer.}
2.r	.
=15	=15
1.r	.
=16	=16
*k[b-e-]	*
*MM[Piu\ animato]	*
2r	.
4r	.
2r	.
4r	.
=17	=17
2r	.
4r	.
4r	.
4r	.
{4d	{Au
=18	=18
2g	loin,
8a	sur
8a	la
2cc	mer,
4b	l'o-
=19	=19
4b	-rage
8g	est
8g	le-
[4a	-ve/,
4a]}	|}
4r	.
{8f	{et
8f	la
=20	=20
2b-	mer
4cc	s'e-
2ee-	-meut
8dd	et
8b-	bouil-
=21	=21
2cc	-lon-
4b-}	-ne;}
4r	.
4r	.
{4g	{le
=22	=22
2cc	flot,
8dd	jus-
8dd	-qu'aux
2ff	cieux,
4ee-	s'e-
=23	=23
4ee-	-ri-
8cc	-ge
8cc	su-
[4dd	-perbe,
2dd]}	|}
{4dd	{et
=24	=24
4ee-	croule
4cc	en
4a-	hur-
[4b-	-lant
8b-]	|
8e-	vers
8f	les
8g	a-
=25	=25
2an	-bi-
4d}	-mes.}
4r	.
4r	.
{4dd	{Tes
=26	=26
2.gg	yeux,
4dd	tes
4ee-	trai^-
4ff	-tres
=27	=27
4.ff	yeux
8cc	si
[4ee-	doux
2ee-]}	|}
{8g-	{me
8a-	re-
=28	=28
2b-	-gar-
[4b-	-dent
4b-]	|
8an	jus-
8b-	-qu'au
8cc	fond
8cc#	de
=29	=29
2.dd	l'a^-
8dd}	-me,}
8r	.
{4.dd#	{et
8dd#	mon
=30	=30
2een	coeur
8bn	tor-
8g#	-tu-
[4f#	-re/,
8f#]}	|}
8r	.
{4een	{mon
=31	=31
2ffn	coeur
8cc#	bien-
8a	-heu-
2f	-reux
4ff	s'ex-
=32	=32
4ff#	-alte
4een	et
4dd	se
2gg	bri-
4g	-se
=33	=33
2.dd	com-
2dd	-me
4dd	la
=34	=34
*k[f#]	*
2.dd}	mer!}
2.r	.
==	==
*-	*-
